X:212
T:The Lone Star
C:Dave Cotton
N:"Bluegrass and Old-Time Mandolin" TablEdited by Mike Stangeland
L:1/8
Q:1/4=190
M:4/4
K:D
z8 |: "D"d'a fe "D6"dB AB | "D"dB de "Daug"fa d'c' | "G"ba gf "Em"ed cd | "A"ec AB "A7"cA GA | 
"Em"BG EF "Edim"GE CD | "A"EC A,B, CD EC | "D"DC "D6"DE F"Dmaj7"A Bc |1 d"D"B AF D4 :|2 d"D"B AF D2 D^A, | 
|: "Gm"G,^A, D=F "Ebmaj7"^DG ^Ad | "A"ce ag "D7"fd c=c | "G7"Bd g=f "Am"e=c AG | 
"D"FG AF "Gm"GD ^A,D | G,^A, D=F "Ebmaj7"^DG ^Ad | "A7"ce ag "D7"fd c=c | "G7"Bd g=f "Am"e=c AG | 
|1 F"D"G AF "Gm"G2 D^A, :|2 F"D"G AF "Gm"G2 [G2G,2] | "D"DC DE "D6"FA Bc | "D"dB AF D4 | 
"D"d'a fe "D6"dB AF | "D"DE FD "A"CD EC | "D"DE FD B,2 A,2 | [a2c2E2A,2] g2 [f4A4D4A,4] | 
 

